public/avatar/item1/33.svg

<svg xmlns:xlink="http://www.w3.org/1999/xlink" height="65.4" width="80.15" xmlns="http://www.w3.org/2000/svg"><use height="26.15" transform="translate(31.7 29.5)" width="22.35" xlink:href="#a"/><defs><g id="a" fill-rule="evenodd"><path d="M20.95 18.1q.95 2.55 1.3 5.45 1.1 9.2-4.2 18.05l-.15.25h-.25q-8.9-.5-14.05-9.05Q2 30.1.95 26.9L.2 24.15l-.1-.45.5-.05q4.6-.3 8.6-5.75l.2-.25.25.1q6.75 1.55 9.7-1.7l.35-.35.3.35.95 2.05" fill="#070a0b" transform="translate(-.1 -15.7)"/><path d="M21.2 26.75q0 7-3.95 13.8Q9.9 40 5.3 33.3q-2.75-4-3.75-8.65 4.6-.8 8.25-5.65 6.1 1.25 9.55-1.5 1.85 4.35 1.85 9.25" fill="#c20000" transform="translate(-.1 -15.7)"/><path d="m17.25 40.55-3.8-.8q1.4-1.5 2.7-4.7 2.65-6.4 2.4-15l.85-2.4q3.05 7.65.75 16.05-1.15 4.2-2.9 6.85" fill="#9a0000" transform="translate(-.1 -15.7)"/><path d="M10.55 20.8Q8.5 24.85 5.1 26.45l.55 4.2Q7.2 35.6 12.2 39.3q-5.6-2.75-8.7-8.95l-1.95-5.7Q7.3 22.85 9.8 19q5.8 1.4 9.6-1.35-4.5 4.45-8.85 3.15" fill="red" transform="translate(-.1 -15.7)"/><path d="M14.4 22.45q-1 1.2-1.1 2.4-.15 1.9 1 1.4 0 .75-1.05 1.6-.45.4 1.45 1.55 2.4 1.45 2.8 2.4 1.45 3.45-2.05 6.65 2.45-4.4.65-6.05-4.6-2.15-5.15-4.55l-.1-2.4q-1.8-.6-2.2-1.6l2.75-.15.55-1.05q.65-.8 1.75-1.25l1.7.05-1 1" fill="#070a0b" transform="translate(-.1 -15.7)"/><path d="M16.6 21.95q.85-1.4.85-2.55l.5 1.35q.9-1.6.9-2.2l.1 1.9.6-.85-.75 2.1.85 1.5-1.7-.25.5 1q-2.1-1.05-4.65.6 2.4-2 2.4-3.6l.4 1m2.25 2.65 1.85.6q-2.45-.2-2.05 1.05.2.65.85 1.3l-.75-.35-1 .05.75 2.4-.95-1.15q-1-1.05-1.3-.75-.3.3-.05 1.25l.3.9-1.6-1.55.3-1.55q.45-1.65 1.3-2.35l2.35.15m-7.35 5.45 1.3 1.8q-1.55-.95-2.1-.5-.35.3.6 1.4l1 1.1q-1.7-1.25-2.25-1.05-.35.15-.2 1l.25.8-1.25-1.05q-1.3-.6-1.4 1.7-.1-.1-.25-1.8-.15-1.9.25-2.3 1.25-1.2 4.05-1.1" fill="#070a0b" transform="translate(-.1 -15.7)"/><path d="M1.55 24.65Q6.65 23.2 9.8 19q3.7 1.15 7.85-.4-3.65 1.5-7.4 1.3Q8.1 22.8 3 25.35q.7 5.3 4.1 10.25-3.3-3.65-4.75-7.65l-.8-3.3" fill="#ffcfb1" transform="translate(-.1 -15.7)"/></g></defs></svg>

<?xml version="1.0" encoding="UTF-8" standalone="no"?>
<svg xmlns:xlink="http://www.w3.org/1999/xlink" height="65.4px" width="80.15px" xmlns="http://www.w3.org/2000/svg">
  <g transform="matrix(1.0, 0.0, 0.0, 1.0, 31.6, 13.8)">
    <use height="26.15" transform="matrix(1.0, 0.0, 0.0, 1.0, 0.1, 15.7)" width="22.35" xlink:href="#shape0"/>
  </g>
  <defs>
    <g id="shape0" transform="matrix(1.0, 0.0, 0.0, 1.0, -0.1, -15.7)">
      <path d="M20.95 18.1 Q21.9 20.65 22.25 23.55 23.35 32.75 18.05 41.6 L17.9 41.85 17.65 41.85 Q8.75 41.35 3.6 32.8 2.0 30.1 0.95 26.9 L0.2 24.15 0.1 23.7 0.6 23.65 Q5.2 23.35 9.2 17.9 L9.4 17.65 9.65 17.75 Q16.4 19.3 19.35 16.05 L19.7 15.7 20.0 16.05 20.95 18.1" fill="#070a0b" fill-rule="evenodd" stroke="none"/>
      <path d="M21.2 26.75 Q21.2 33.75 17.25 40.55 9.9 40.0 5.3 33.3 2.55 29.3 1.55 24.65 6.15 23.85 9.8 19.0 15.9 20.25 19.35 17.5 21.2 21.85 21.2 26.75" fill="#c20000" fill-rule="evenodd" stroke="none"/>
      <path d="M17.25 40.55 L13.45 39.75 Q14.85 38.25 16.15 35.05 18.8 28.65 18.55 20.05 L19.4 17.65 Q22.45 25.3 20.15 33.7 19.0 37.9 17.25 40.55" fill="#9a0000" fill-rule="evenodd" stroke="none"/>
      <path d="M10.55 20.8 Q8.5 24.85 5.1 26.45 L5.65 30.65 Q7.2 35.6 12.2 39.3 6.6 36.55 3.5 30.35 L1.55 24.65 Q7.3 22.85 9.8 19.0 15.6 20.4 19.4 17.65 14.9 22.1 10.55 20.8" fill="#ff0000" fill-rule="evenodd" stroke="none"/>
      <path d="M14.4 22.45 Q13.4 23.65 13.3 24.85 13.15 26.75 14.3 26.25 14.3 27.0 13.25 27.85 12.8 28.25 14.7 29.4 17.1 30.85 17.5 31.8 18.95 35.25 15.45 38.45 17.9 34.05 16.1 32.4 11.5 30.25 10.95 27.85 L10.85 25.45 Q9.05 24.85 8.65 23.85 L11.4 23.7 11.95 22.65 Q12.6 21.85 13.7 21.4 L15.4 21.45 14.4 22.45" fill="#070a0b" fill-rule="evenodd" stroke="none"/>
      <path d="M16.6 21.95 Q17.45 20.55 17.45 19.4 L17.95 20.75 Q18.85 19.15 18.85 18.55 L18.95 20.45 19.55 19.6 18.8 21.7 19.65 23.2 17.95 22.95 18.45 23.95 Q16.35 22.9 13.8 24.55 16.2 22.55 16.2 20.95 L16.6 21.95" fill="#070a0b" fill-rule="evenodd" stroke="none"/>
      <path d="M18.85 24.6 L20.7 25.2 Q18.25 25.0 18.65 26.25 18.85 26.9 19.5 27.55 L18.75 27.2 17.75 27.25 18.5 29.65 17.55 28.5 Q16.55 27.45 16.25 27.75 15.95 28.05 16.2 29.0 L16.5 29.9 14.9 28.35 15.2 26.8 Q15.65 25.15 16.5 24.45 L18.85 24.6" fill="#070a0b" fill-rule="evenodd" stroke="none"/>
      <path d="M11.5 30.05 L12.8 31.85 Q11.25 30.9 10.7 31.35 10.35 31.65 11.3 32.75 L12.3 33.85 Q10.6 32.6 10.05 32.8 9.7 32.95 9.85 33.8 L10.1 34.6 8.85 33.55 Q7.55 32.95 7.45 35.25 7.35 35.15 7.2 33.45 7.05 31.55 7.45 31.15 8.7 29.95 11.5 30.05" fill="#070a0b" fill-rule="evenodd" stroke="none"/>
      <path d="M1.55 24.65 Q6.65 23.2 9.8 19.0 13.5 20.15 17.65 18.6 14.0 20.1 10.25 19.9 8.1 22.8 3.0 25.35 3.7 30.65 7.1 35.6 3.8 31.95 2.35 27.95 L1.55 24.65" fill="#ffcfb1" fill-rule="evenodd" stroke="none"/>
    </g>
  </defs>
</svg>
